assets/icons/comment.svg

<svg width="27" height="26" viewBox="0 0 27 26" fill="none" xmlns="http://www.w3.org/2000/svg">
<path d="M15.8516 22.6318C20.3831 22.3306 23.9928 18.6697 24.2899 14.0739C24.3479 13.1745 24.3479 12.243 24.2899 11.3437C23.9928 6.74782 20.3831 3.08696 15.8516 2.78573C14.3055 2.68297 12.6915 2.68318 11.1486 2.78573C6.617 3.08696 3.00736 6.74782 2.71034 11.3437C2.65222 12.243 2.65222 13.1745 2.71034 14.0739C2.81852 15.7477 3.55879 17.2976 4.43031 18.6062C4.93634 19.5224 4.60238 20.6659 4.07531 21.6647C3.69527 22.3849 3.50526 22.745 3.65782 23.0051C3.8104 23.2652 4.15119 23.2735 4.83279 23.2901C6.18072 23.3229 7.08965 22.9408 7.81115 22.4087C8.22035 22.107 8.42495 21.9561 8.56597 21.9388C8.70698 21.9214 8.9845 22.0357 9.53942 22.2643C10.0382 22.4697 10.6173 22.5965 11.1486 22.6318C12.6915 22.7344 14.3055 22.7346 15.8516 22.6318Z" stroke="white" stroke-width="1.5" stroke-linejoin="round"/>
</svg>

<svg xmlns="http://www.w3.org/2000/svg" width="27" height="26" fill="none" viewBox="0 0 27 26"><path stroke="#fff" stroke-linejoin="round" stroke-width="1.5" d="M15.852 22.632c4.531-.301 8.14-3.962 8.438-8.558.058-.9.058-1.831 0-2.73-.297-4.596-3.907-8.257-8.438-8.558a36 36 0 0 0-4.703 0c-4.532.301-8.142 3.962-8.439 8.558-.058.899-.058 1.83 0 2.73.109 1.674.849 3.224 1.72 4.532.506.916.172 2.06-.355 3.059-.38.72-.57 1.08-.417 1.34s.493.268 1.175.285c1.348.033 2.257-.35 2.978-.881.41-.302.614-.453.755-.47.141-.018.418.097.973.325a5.3 5.3 0 0 0 1.61.368c1.543.102 3.157.103 4.703 0Z"/></svg>
